X:1
T:Ирмосы перваго канона
T:Песнь 1
C:Греческого распева
M:4/4
L:1/4
K:F
V:1 clef=treble name="Soprano"
%%MIDI program 40
V:2 clef=treble name="Alto"
%%MIDI program 40
V:3 clef=bass octave=-1 name="Tenor"
%%MIDI program 40
V:4 clef=bass octave=-2 name="Bass"
%%MIDI program 40
%%score [(1 2) (3 4)]
%%tempo { 40, 60, *80, 100, 120, 140 }
%%player_top
[V:1]AABc2cdcB/A/G2 | EG2GAB/A/GA2|
s: "Песнь 1"
[V:2]FFGA2ABAG/F/E2 | CE2EFG/F/EF2 |
w:Хрис-тос раж-да-ет-ся, сла-ви--те, Хрис-тосс Не-бес, сря--щи-те!
[V:3]cccf2fffcc2 | cc2ccccc2 |
[V:4]ffff2ffffc2 | cc2ccccf2 |
[V:1]Ac2ABc2cdcB/A/G2 |
[V:2]FA2FGA2ABAG/F/E2 |
w:Хрис-тос на зем-ли воз-но-си-те--ся,
[V:3]cf2ccf2fffcc2 |
[V:4]ff2fff2ffffc2 |
[V:1]EFGFEFG/A/BA2 |
[V:2]^CDEDCDE/F/GF2 |
w:Пой-те Гос-по-де-ви вся* зем-ля,
[V:3]AAAAAAccc2 |
[V:4]AAAAAdccf2 |
[V:1]ABcccBcdcB/A/G2 |
[V:2]FGAAAGABAG/F/E2 |
w:и ве-се-ли-ем вос-пой-те лю-ди--у,
[V:3]ccfffffffcc2 |
[V:4]ffffffffffc2 |
[V:1](BA)GAB2G2A4 |]
[V:2](GF)EFG2E2F4 |]
w:Я--ко про-сла-ви-ся
[V:3]c2ccc2c2c4 |]
[V:4]c2ccc2c2f4 |]
